!!!COM: Palestrina, Giovanni Perluigi da
!!!OPR: Missa Virtute magna
!!!OTL: Gloria
**kern	**kern	**kern	**kern
*Ibass	*Itenor	*Icalto	*Icant
!Bassus	!Tenor	!Altus	!Cantus
*clefF4	*clefGv2	*clefG2	*clefG2
*k[]	*k[]	*k[]	*k[]
*G:mix	*G:mix	*G:mix	*G:mix
*M4/2	*M4/2	*M4/2	*M4/2
=1	=1	=1	=1
0r	1G	0r	0r
.	[1d	.	.
=2	=2	=2	=2
0r	2d]	0r	1r
.	2d	.	.
.	1c	.	1g
=3	=3	=3	=3
0r	2B	0r	1.dd
.	1d	.	.
.	4c	.	2dd
.	4B	.	.
=4	=4	=4	=4
0r	4A	1c	1cc
.	4G	.	.
.	2A	.	.
.	2.G	[1g	2b
.	.	.	[2dd
.	4A	.	.
=5	=5	=5	=5
0r	2B	2g]	2dd]
.	2c	2g	4cc
.	.	.	4b
.	1d	1f	4a
.	.	.	4g
.	.	.	4a
.	.	.	4b
=6	=6	=6	=6
1C	2c	2e	1cc
.	1e	1g	.
[1G	.	.	[1b
.	4d	4f	.
.	4c	4e	.
=7	=7	=7	=7
2G]	2B	2d	2b]
2G	2G	2e	2b
1F	1A	2e	2a
.	.	2d	2a
=8	=8	=8	=8
2E	2.B	1e	4g
.	.	.	4a
1G	.	.	4b
.	4A	.	4cc
.	2B	1r	2dd
4F	[2c	.	2ee
4E	.	.	.
=9	=9	=9	=9
4D	2c]	1r	2.ff
4C	.	.	.
2D	2B	.	.
.	.	.	4ff
1C	2.c	2r	1ee
.	.	[2g	.
.	4B	.	.
=10	=10	=10	=10
1D	1A	2g]	2r
.	.	2f	1dd
2G	1r	2b-	.
2A	.	2a	2cc
=11	=11	=11	=11
1D	2r	4a	1ff
.	.	4g	.
.	1d	4f	.
.	.	4g	.
1r	.	4a	2ff
.	.	4b	.
.	2c	[2cc	[2ee
=12	=12	=12	=12
0r	2f	4cc]	4ee]
.	.	4b	4dd
.	2f	2.a	2dd
.	1e	.	4cc
.	.	4g	4b
.	.	[2g	4a
.	.	.	4g
=13	=13	=13	=13
2r	1d	2g]	2.a
2d	.	2f	.
.	.	.	4b
2c	2r	2e	2cc
2B	2g	2d	[2dd
=14	=14	=14	=14
2.A	2f	1a	2dd]
.	2.e	.	2cc#
4G	.	.	.
2F#	.	1r	1dd
.	4d	.	.
2G	[2d	.	.
=15	=15	=15	=15
1E	2d]	2r	1r
.	2c#	1g	.
1D	1d	.	2r
.	.	2f	[2dd
=16	=16	=16	=16
0r	2r	2e	2dd]
.	1g	2e	2cc
.	.	1d	2b
.	2f	.	2a
=17	=17	=17	=17
1r	2e	2.c	2a
.	2e	.	2.g
.	.	4B	.
2r	1c	1A	.
.	.	.	8f
.	.	.	8e
[2c	.	.	2f#
=18	=18	=18	=18
2c]	1d	2G	1g
2B	.	1g	.
2A	1c	.	2r
2A	.	2f	[2cc
=19	=19	=19	=19
2.G	0r	2e	2cc]
.	.	2.d	2b
4F	.	.	.
2E	.	.	2g
.	.	4c	.
2F	.	[2c	2a
=20	=20	=20	=20
1D	2r	2c]	1f
.	2f	2B	.
1C	2f	2c	2r
.	2e	2g	2cc
=21	=21	=21	=21
2G	2.d	2g	2b
2D	.	2f	1a
.	4c	.	.
2E	2B	2e	.
2C	2c	2e	[2g
=22	=22	=22	=22
0D	0A	[0d	2g]
.	.	.	4f
.	.	.	4e
.	.	.	2f#
.	.	.	2f#
=23	=23	=23	=23
2r	1G	0d]	0g
1G	.	.	.
.	2r	.	.
2G	[2d	.	.
=24	=24	=24	=24
2G	2d]	0r	0r
1B-	2d	.	.
.	2d	.	.
4A	[2f	.	.
4G	.	.	.
=25	=25	=25	=25
2F	2f]	0r	0r
2G	4e	.	.
.	4d	.	.
2A	2c	.	.
[2G	2d	.	.
=26	=26	=26	=26
2G]	2e	2r	0r
2F#	4d	1d	.
.	4c	.	.
2.G	4B	.	.
.	4A	.	.
.	2B	2d	.
4F	.	.	.
=27	=27	=27	=27
2E	2c	2e	0r
2D	1d	2f	.
1E	.	[1g	.
.	2c#	.	.
=28	=28	=28	=28
0D	0d	2g]	2r
.	.	4f	1a
.	.	4e	.
.	.	4f	.
.	.	4g	.
.	.	4a	2a
.	.	4f	.
=29	=29	=29	=29
0r	0r	2g	2b
.	.	2a	2cc
.	.	2f	[1dd
.	.	2g	.
=30	=30	=30	=30
0r	1.A	2f	2dd]
.	.	4e	4cc
.	.	4d	4b
.	.	2e	2cc#
.	2A	[2a	2cc#
=31	=31	=31	=31
1r	2B	4a]	2dd
.	.	4g	.
.	2c	1g	4cc
.	.	.	4b
[1D	2.d	.	1a
.	.	4f	.
.	4c	4e	.
=32	=32	=32	=32
2D]	2B	1f#	2.dd
2D	2A	.	.
.	.	.	4cc
2E	2G	2g	2b
2F	2A	2f	[2a
=33	=33	=33	=33
2G	1B	2.d	2a]
2G	.	.	2g
.	.	4e	.
2F	2.A	[1f	[1a
[2F	.	.	.
.	4B	.	.
=34	=34	=34	=34
2F]	2c	1f]	1a]
4E	1d	.	.
4D	.	.	.
1A	.	1e	2r
.	2c#	.	[2a
=35	=35	=35	=35
1D	1d	[0d	4a]
.	.	.	4a
.	.	.	2f
2r	1G	.	1b-
[2G	.	.	.
=36	=36	=36	=36
4G]	1r	0d]	1a
4G	.	.	.
2F	.	.	.
1B-	2r	.	4d
.	.	.	4e
.	[2d	.	4f
.	.	.	4g
=37	=37	=37	=37
1A	4d]	0r	4a
.	4d	.	4b
.	2c	.	2cc
4D	1f	.	2a
4E	.	.	.
4F	.	.	[2dd
4G	.	.	.
=38	=38	=38	=38
2.A	2e	0r	2dd]
.	1e	.	2.cc
4B	.	.	.
2c	.	.	.
.	.	.	4b
2d	2f	.	[2a
=39	=39	=39	=39
1B-	1d	2r	2a]
.	.	1d	2g
2.A	1e	.	[1a
.	.	2c	.
4G	.	.	.
=40	=40	=40	=40
2F	2r	1f	1a]
2D	1d	.	.
1A	.	2e	1r
.	2c	2e	.
=41	=41	=41	=41
1D	1f	2d	2r
.	.	2d	1dd
1r	2e	1A	.
.	2e	.	2cc
=42	=42	=42	=42
0r	2d	2r	1ff
.	2d	2.a	.
.	4A	.	2ee
.	4B	4g	.
.	4c	4e	2ee
.	4A	4f	.
=43	=43	=43	=43
0r	4B	2g	2dd
.	4c	.	.
.	2.d	4f	2dd
.	.	4e	.
.	.	4f	4a
.	4c	4g	4b
.	4A	2a	4cc
.	4B	.	4dd
=44	=44	=44	=44
0r	2c	2g	2ee
.	2d	2f	1dd
.	1A	1e	.
.	.	.	2cc#
=45	=45	=45	=45
2r	1d	2r	1dd
2.G	.	2.g	.
.	2r	.	2r
4G	.	4g	.
2G	[2d	2g	[2dd
=46	=46	=46	=46
1B-	4d]	2f	4dd]
.	4d	.	4dd
.	2d	2g	2dd
1A	1f	1a	[1cc
=47	=47	=47	=47
2r	1e	0r	2cc]
1G	.	.	4b
.	.	.	4a
.	2r	.	1b
2G	[2d	.	.
=48	=48	=48	=48
2F	2d]	1r	1a
2F	2d	.	.
4E	2c	2r	1r
4D	.	.	.
4E	2c	[2g	.
4F	.	.	.
=49	=49	=49	=49
2.G	4B	2g]	0r
.	4A	.	.
.	4B	2g	.
4F	4c	.	.
4D	2d	2f	.
4E	.	.	.
4F	2A	2f	.
4G	.	.	.
=50	=50	=50	=50
4A	1c	4e	1r
4B	.	4d	.
1c	.	4e	.
.	.	4f	.
.	[1G	2.g	2r
4B	.	.	[2dd
4A	.	8f	.
.	.	8e	.
=51	=51	=51	=51
1B	1G]	2d	2dd]
.	.	1g	2dd
1A	1r	.	2cc
.	.	2f#	2cc
=52	=52	=52	=52
1G	2r	1g	4b
.	.	.	4a
.	1g	.	4b
.	.	.	4cc
2r	.	1d	1dd
[2d	[2f	.	.
=53	=53	=53	=53
2d]	4f]	1r	0a
.	8e	.	.
.	8d	.	.
2c#	2e	.	.
1d	[1f	2r	.
.	.	[2d	.
=54	=54	=54	=54
1A	2f]	2d]	0a
.	2e	2c	.
1r	2d	2f	.
.	2c	2e	.
=55	=55	=55	=55
2r	1B	1d	1g
1d	.	.	.
.	2.A	2r	1a
2c	.	[2a	.
.	4B	.	.
=56	=56	=56	=56
2A	4c	2a]	0r
.	4d	.	.
1c	1e	2g	.
.	.	2e	.
4B	4d	[2g	.
4A	4c	.	.
=57	=57	=57	=57
1B	1d	4g]	2r
.	.	4f	.
.	.	4d	1dd
.	.	4e	.
1A	1r	2f	.
.	.	4e	2cc
.	.	4d	.
=58	=58	=58	=58
2.A	0r	2e	2a
.	.	2c	1cc
4B	.	.	.
2c	.	2e	.
2d	.	2f	4b
.	.	.	4a
=59	=59	=59	=59
1G	2r	0d	1b
.	1g	.	.
1D	.	.	1a
.	2f	.	.
=60	=60	=60	=60
2r	2d	1d	1a
1d	1f	.	.
.	.	1r	2b
2c	4e	.	[2cc
.	4d	.	.
=61	=61	=61	=61
2A	1.e	0r	4cc]
.	.	.	4b
1c	.	.	2a
.	.	.	2g
4B	4d	.	[2a
4A	4c	.	.
=62	=62	=62	=62
1B	1d	2r	2a]
.	.	1d	2g#
1A	[1e	.	[1a
.	.	2c	.
=63	=63	=63	=63
2r	1e]	2A	1a]
1A	.	1c	.
.	2r	.	1r
2G	[2e	4B	.
.	.	4A	.
=64	=64	=64	=64
2E	2e]	0B	0r
2.G	2d	.	.
.	2B	.	.
4F	.	.	.
4D	[2d	.	.
4E	.	.	.
=65	=65	=65	=65
2.F	4d]	2A	1r
.	4c	.	.
.	4A	1a	.
4G	4B	.	.
2A	2c	.	2r
2B-	2d	2g	[2dd
=66	=66	=66	=66
2.A	2e	0a	2dd]
.	2.f	.	2cc
4G	.	.	.
1F	.	.	2a
.	4e	.	.
.	4c	.	[2cc
.	4d	.	.
=67	=67	=67	=67
0G	2e	1.g	2cc]
.	4d	.	4b
.	4c	.	4a
.	1d	.	1b
.	.	2f	.
=68	=68	=68	=68
1C	2.c	1e	2a
.	.	.	1g
.	4B	.	.
1D	1A	1d	.
.	.	.	2f#
=69	=69	=69	=69
0G	0G	0d	0g
=70	=70	=70	=70
0r	0r	1d	1r
.	.	1g	1g
=71	=71	=71	=71
0r	0r	2g	1dd
.	.	4f	.
.	.	4e	.
.	.	2f	1dd
.	.	2g	.
=72	=72	=72	=72
0r	0r	4c	1ee
.	.	4d	.
.	.	4e	.
.	.	4f	.
.	.	1g	2dd
.	.	.	2b
=73	=73	=73	=73
0r	1r	2e	1cc
.	.	2.a	.
.	1G	.	2.b
.	.	4g	.
.	.	[2g	.
.	.	.	8a
.	.	.	8g
=74	=74	=74	=74
1D	1d	2g]	1a
.	.	2f#	.
1G	1d	1g	[1b
=75	=75	=75	=75
2G	1e	0r	2b]
4F	.	.	2cc
4E	.	.	.
2F	2d	.	1dd
2G	2B	.	.
=76	=76	=76	=76
4C	1c	0r	1ee
4D	.	.	.
4E	.	.	.
4F	.	.	.
[1G	2.B	.	[1dd
.	4A	.	.
=77	=77	=77	=77
2G]	4B	1r	1dd]
.	4c	.	.
2F	1d	.	.
1E	.	2r	1r
.	2c#	[2g	.
=78	=78	=78	=78
1D	1d	2g]	1r
.	.	2f	.
1r	1G	1b-	2r
.	.	.	[2dd
=79	=79	=79	=79
0r	1r	1a	2dd]
.	.	.	2cc
.	2r	4d	1ff
.	.	4e	.
.	[2d	4f	.
.	.	4g	.
=80	=80	=80	=80
0r	2d]	4a	1ee
.	.	4b	.
.	2c	2.cc	.
.	1f	.	4a
.	.	4b	4b
.	.	2a	4cc
.	.	.	4dd
=81	=81	=81	=81
0r	2e	2g	4ee
.	.	.	4cc
.	4d	1a	1ff
.	4e	.	.
.	4f	.	.
.	4d	.	.
.	[2g	2b-	4ee
.	.	.	4dd
=82	=82	=82	=82
1C	4g]	0a	2ee
.	4f	.	.
.	2e	.	1cc
1G	[1d	.	.
.	.	.	4b
.	.	.	4a
=83	=83	=83	=83
1G	1d]	1r	1b
1A	1r	1c	1cc
=84	=84	=84	=84
2.G	2r	1g	1b
.	2d	.	.
4A	.	.	.
2B	2d	1g	1r
2c	2e	.	.
=85	=85	=85	=85
4F	1f	1a	0r
4G	.	.	.
4A	.	.	.
4B	.	.	.
4c	2e	2g	.
4d	.	.	.
[2e	2c	2e	.
=86	=86	=86	=86
4e]	1d	2.f	1r
4d	.	.	.
1d	.	.	.
.	.	8e	.
.	.	8d	.
.	1A	1e	[1a
2c#	.	.	.
=87	=87	=87	=87
2d	2r	2d	2a]
1D	1d	1f#	2a
.	.	.	1a
2D	2d	2f#	.
=88	=88	=88	=88
1D	1d	1f#	2r
.	.	.	1dd
[1G	[1B	[1g	.
.	.	.	2dd
=89	=89	=89	=89
2G]	2B]	2g]	0dd
2G	2B	2g	.
2.G	1B	[1g	.
4F	.	.	.
=90	=90	=90	=90
2E	2r	1g]	1.ee
2C	1c	.	.
1G	.	1g	.
.	2B	.	2dd
=91	=91	=91	=91
1r	2c	1g	2ee
.	2G	.	2b
2r	1A	[1e	[1cc
[2A	.	.	.
=92	=92	=92	=92
2A]	1E	1e]	2cc]
2G#	.	.	2b
2A	2c	1e	2a
2E	2B	.	2g#
=93	=93	=93	=93
1F	4A	1c	2a
.	4G	.	.
.	4A	.	2.cc
.	4B	.	.
1C	1c	1e	.
.	.	.	4b
.	.	.	[2a
=94	=94	=94	=94
1D	2B	0d	2a]
.	4A	.	1g
.	4G	.	.
1D	1A	.	.
.	.	.	2f#
=95	=95	=95	=95
2r	1G	0B	0g
2G	.	.	.
1G	2r	.	.
.	2d	.	.
=96	=96	=96	=96
2F	1d	0r	0r
2G	.	.	.
2A	2c	.	.
2F	2d	.	.
=97	=97	=97	=97
2G	2e	0r	0r
2A	2c	.	.
2F	2d	.	.
[2G	[2e	.	.
=98	=98	=98	=98
4G]	4e]	2r	0r
4F	4d	.	.
4E	1d	1g	.
4D	.	.	.
1E	.	.	.
.	2c#	2g	.
=99	=99	=99	=99
0D	1d	2.f	2r
.	.	.	1dd
.	.	4g	.
.	2r	2a	.
.	2d	2f	2dd
=100	=100	=100	=100
0r	2e	2g	2.cc
.	2f	2.a	.
.	.	.	4dd
.	2c	.	2ee
.	.	4g	.
.	2e	2g	2cc
=101	=101	=101	=101
1r	2d	2f	2dd
.	2c	2.g	2.ee
[1G	1d	.	.
.	.	4f	4dd
.	.	2d	[2dd
=102	=102	=102	=102
2G]	0r	1e	2dd]
2A	.	.	2cc#
2B	.	1d	1dd
2B	.	.	.
=103	=103	=103	=103
2.c	2r	2.e	1g
.	1c	.	.
4B	.	4d	.
2A	.	2c	1r
4G	2d	4B	.
4F#	.	4A	.
=104	=104	=104	=104
2G	2e	2B	0r
2A	2e	2c	.
2.D	[1f	1d	.
4E	.	.	.
=105	=105	=105	=105
4F	2f]	1A	2r
4G	.	.	.
2.A	4e	.	1cc
.	4d	.	.
.	2e	1r	.
4G	.	.	.
2F	[2d	.	2dd
=106	=106	=106	=106
2E	4d]	2r	2ee
.	4c	.	.
2C	1c	2g	2ee
1D	.	2f	1ff
.	2B	2d	.
=107	=107	=107	=107
1C	0c	2.e	2ee
.	.	.	1ee
.	.	4f	.
2r	.	2g	.
2c	.	[2a	4dd
.	.	.	4cc
=108	=108	=108	=108
2B	1G	4a]	1dd
.	.	4g	.
2G	.	1g	.
2A	2r	.	2cc
2A	2c	2f#	2cc
=109	=109	=109	=109
1G	2d	1g	2b
.	2e	.	2g
2r	2f	1r	2a
2F	2f	.	2a
=110	=110	=110	=110
1c	1e	2r	1g
.	.	2c	.
2B	1r	1g	2r
2G	.	.	2g
=111	=111	=111	=111
2A	1c	2e	1cc
2A	.	2c	.
1G	1g	2d	2b
.	.	2e	2g
=112	=112	=112	=112
0r	2f	2.d	2a
.	2d	.	1dd
.	.	8c	.
.	.	8B	.
.	2e	1A	.
.	2e	.	2cc#
=113	=113	=113	=113
2r	2.d	2r	1dd
1d	.	1f	.
.	8c	.	.
.	8B-	.	.
.	1A	.	1r
2c#	.	[2e	.
=114	=114	=114	=114
1d	2r	4e]	0a
.	.	4d	.
.	1f	1d	.
1A	.	.	.
.	2e	2c	.
=115	=115	=115	=115
0r	2d	2f	1a
.	2c	2e	.
.	1B	1d	1g
=116	=116	=116	=116
2r	1A	2r	[0a
1D	.	1f	.
.	1r	.	.
2C#	.	2e	.
=117	=117	=117	=117
4D	1f	1d	1a]
4E	.	.	.
4F	.	.	.
4G	.	.	.
1A	[1e	4c	[1cc
.	.	4d	.
.	.	4e	.
.	.	4f	.
=118	=118	=118	=118
1G	2e]	1g	2cc]
.	2d	.	2b
1C	2.c	1e	2a
.	.	.	[2g
.	4B	.	.
=119	=119	=119	=119
2r	1A	2r	2g]
2c	.	2c	2f#
2B	1G	2d	1g
2G	.	2e	.
=120	=120	=120	=120
2.A	0r	2f	0r
.	.	2.e	.
4G	.	.	.
2F	.	.	.
.	.	4d	.
4E	.	[2d	.
4D	.	.	.
=121	=121	=121	=121
2E	1g	2d]	1r
2E	.	2c#	.
1D	2f	1d	2r
.	2d	.	2dd
=122	=122	=122	=122
0r	2f	2r	2cc
.	2f	2d	2a
.	2.e	2c	2cc
.	.	2A	2cc
.	8d	.	.
.	8c	.	.
=123	=123	=123	=123
1r	2d	2B	2.b
.	1g	2G	.
.	.	.	8a
.	.	.	8g
2r	.	1d	1a
2d	2f	.	.
=124	=124	=124	=124
2c	2e	2r	0r
2B-	1d	2g	.
1A	.	2f	.
.	2c#	2e	.
=125	=125	=125	=125
2.D	1d	2d	2r
.	.	2b-	2dd
4E	.	.	.
2F	1r	2a	2cc
2G	.	2g	2b-
=126	=126	=126	=126
1D	1d	4f	2a
.	.	4g	.
.	.	4a	2ff
.	.	4f	.
1r	2c	4g	2ee
.	.	4f	.
.	2B-	4e	[2dd
.	.	4d	.
=127	=127	=127	=127
1r	1A	1e	2dd]
.	.	.	2cc#
2r	1f	1d	1dd
2d	.	.	.
=128	=128	=128	=128
2c	2e	2r	1g
2B-	1d	2g	.
1A	.	2f	1a
.	2c#	[2e	.
=129	=129	=129	=129
2F	1d	4e]	1r
.	.	4d	.
2G	.	1d	.
1E	1G	.	2r
.	.	2c#	[2g
=130	=130	=130	=130
1D	2r	2.d	2g]
.	1d	.	1f
.	.	4c	.
1r	.	2B	.
.	[2c	2c	2e
=131	=131	=131	=131
2r	2c]	1G	2.d
2G	2B	.	.
.	.	.	4e
2F	2A	2r	2f
2E	2G	2c	[2g
=132	=132	=132	=132
1D	1d	2B	2g]
.	.	2A	2f#
2r	1B	1G	1g
2d	.	.	.
=133	=133	=133	=133
2c	2e	1g	2r
2B	2d	.	1dd
1A	1r	2f	.
.	.	[2e	[2cc
=134	=134	=134	=134
2F#	1r	4e]	2cc]
.	.	4d	.
2G	.	1d	2b
1E	2r	.	2.g
.	[2g	2c#	.
.	.	.	4a
=135	=135	=135	=135
1D	2g]	1d	2b
.	2f	.	2a
4C	1e	2r	2cc
4D	.	.	.
4E	.	[2g	2cc
4F#	.	.	.
=136	=136	=136	=136
2G	2.d	2g]	2b
2D	.	2f	2.a
.	4c	.	.
2E	2B	1e	.
.	.	.	4g
2C	2c	.	[2g
=137	=137	=137	=137
0D	0A	1d	2g]
.	.	.	4f
.	.	.	4e
.	.	1d	1f#
=138	=138	=138	=138
[0G	[0G	[0d	[0g
=139	=139	=139	=139
0G]	0G]	0d]	0g]
==	==	==	==
*-	*-	*-	*-
!!!CDT: 1525/^1526/-1594/2/2
!!!OCY: Italia
!!!AGN: Mass (Parody)
!!!AST: renaissance, vocal
!!!ASW: Motet 1532 (Lasson)
!!!PWK: Masses, Book I
!!!RNB: Cadence finals: D
!!!YOR: Le Opere Complete, v. 1, p. 62
!!!YOO: Rome, Italy: Fratelli Scalera
!!!END: 1992//
!!!EED: John Miller
!!!YEC: Copyright 2000, John Miller
!!!YEN: United States of America
!!!YEM: Rights to all derivative electronic formats reserved.
!!!YEM: Refer to licensing agreement for further details.
!!!YEM: This file must be accompanied by the licensing agreement.
!!!YEM: A copy of the licensing agreement may be found at http://www.music-cog.ohio-state.edu/HumdrumDatabases/Palestrina/license.txt
!!!EMD: converted to Humdrum by Bret Aarden
